X: 53
T:Mouse in the Cupboard
M:6/8
L:1/8
Q:300
K:G
GA|BcB AGE|DGG FGA|BAB cBc|def gdc|
BcB AGE|DGG FGA|Bcd cAF|ABF G4:|
BAB cBc|dgg fdc|def gfg|abg fdd|
dgg b2 g|a2 g fdc| Bcd cAF |AGF G4:|

